X:1
T:Title
%%score { 1 | ( 2 3 ) }
L:1/8
M:6/8
K:Bb
V:1 treble nm="Grand Piano"
V:2 bass 
V:3 bass 
V:1
 z3 z2[Q:1/4=87] [DB] | [Fd][Ec]B G2 [FA] |[M:7/8] [GB]2 [EG] [DF]3 [DB] | %3
[M:3/4] [Fc]2 [FA] [FB]2 [Fd] | [Fc]4- [Fc][DB] | [Fd][Ec] [B,DB] [B,G]2 [B,FA] | %6
[M:7/8] [B,GB]2 [B,EG] [B,DF]3 [B,DF]/[B,DF]/ |[M:3/4] [B,DF]2 [DB][Ec] BA | %8
[M:5/8] [DB]-[DB]- [DB]3 |[M:1/8] [DF] |[M:3/4] [DF]2 [DF] [DF]2 [DF] | G4- GG | G2 G [=EG]2 [GB] | %13
[M:7/8] A-A-A- A3 F |[M:3/4] B2 B c2 c |[M:7/8] d2 d [Ge]3 c |[M:3/4] F2 Bc BA | %17
[M:5/8] [DB]-[DB]- [DB]3 |] %18
V:2
 z3 z2 [B,,F,] | [B,,F,][C,F,][D,F,D] [E,B,]2 [E,B,] |[M:7/8] [E,B,]2 [E,B,] [B,,B,]3 [B,,B,] | %3
[M:3/4] [F,A,]2 [E,C] [D,B,]2 [B,,B,] | [F,A,]4- [F,A,][B,,B,] | [B,,F,][C,F,] D, E,2 E, | %6
[M:7/8] E,2 E, B,,3 B,,/D,/ |[M:3/4] F,2 .F,2 D[F,C] |[M:5/8] [B,,F,]-[B,,F,]- [B,,F,]3 | %9
[M:1/8] [B,,B,] |[M:3/4] [B,,B,]2 [B,,B,] [B,,B,]2 [B,,B,] | [E,B,E]4- [E,B,E][E,B,E] | %12
 [E,B,E]2 [E,B,E] [C,C]2 [C,C] |[M:7/8][K:treble] [F,CF]-[F,CF]-[F,CF]- [F,CF]3 [B,D] | %14
[M:3/4] [B,D]2 [B,D] [B,E]2 [B,E] |[M:7/8] [B,F]2 [B,_A][K:bass] [E,B,]3 [E,G,E] | %16
[M:3/4] [F,D]2 [F,D]E D[F,C] |[M:5/8] [B,,F,]-[B,,F,]- [B,,F,]3 |] %18
V:3
 x6 | x6 |[M:7/8] x7 |[M:3/4] x6 | x6 | x6 |[M:7/8] x7 |[M:3/4] z2 z .F,3 |[M:5/8] x5 |[M:1/8] x | %10
[M:3/4] x6 | x6 | x6 |[M:7/8][K:treble] x7 |[M:3/4] x6 |[M:7/8] x3[K:bass] x4 |[M:3/4] z2 z .F,3 | %17
[M:5/8] x5 |] %18

